T: March Of The Men Of Harlech, The
M: 4/4
L: 1/8
K: Cdor
K: BbMaj
|: {B,/D/F/}B>AGA BcdB | edcB AGAF |
{B,/D/F/}B>AGA Bcdf | d2 c>B B4 :|
|: c>BA>B cc z2 | f>ed>e ff z2 |
f>ed>e f>ed>e | f>ed>e ff z d |
e>gf>f e>ed>d | c3/e/4d/4cB AGAF |
{B,/D/F/}B>AGA Bcdf | d>ec>B B4 :|
